X: 17726
T: Home Ruler, The
R: hornpipe
M: 4/4
K: Gmajor
(3DEF|G2 (3BAG dGBG|g3d e3d|d2 dedc B(c|c3)B AGED|
GA (3BAG dGBG|g3d eage|Bdde d2 (3ABc|B3G cBAG|
G2 (3BAG dGBG|g3d e3d|d2 dedc B(c|c3)B AGED|
GA (3BAG dGBG|g3d eage|Bdde d2 (3ABc|B3G AG G2||
DGGF G3B|d3e dBAG|ABAG EDBD|G2 (3Bcd AGED|
DGGF G3B|d3e dBAG|ABAG EGGE|dBAB GABc|
dGGF G3B|d3e dBAG|ABAG EDBD|G2 (3Bcd AGED|
DGGF G3B|d3e dBAG|ABAG EGGE|dBAB G2 (3DEF||

